X: 26
T:Winhams
% Nottingham Music Database
S:NPTB, via EF
M:4/4
L:1/4
K:G
P:A
D|"G"G/2A/2B/2A/2 GD|"C"EG "G"DG|"C"EG "G"DG|"A7""C"BA "D7""D"AB/2A/2|
"G""Em"G/2A/2B/2A/2 G" ""d"D|"C"EG "G"DG|"C"EG "D7"Dd|"G"BG G:|
P:B
(3d/2e/2f/2|"G"gG Bg|"Am"fA "Am7"ce|"D"dD FA|"C"c/2B/2A/2B/2 "D7"c/2d/2e/2f/2|
"G"gG Bg|"Am"fA "Am7"ce|"D7"dD Fd|"G"BG G:|


